; generated by PrusaSlicer 2.0.0+linux64 on 2019-12-16 at 18:38:39

; 

; external perimeters extrusion width = 0.45mm
; perimeters extrusion width = 0.45mm
; infill extrusion width = 0.45mm
; solid infill extrusion width = 0.45mm
; top infill extrusion width = 0.40mm
; first layer extrusion width = 0.42mm

M73 P0 R63
M73 Q0 S63
M201 X1000 Y1000 Z1000 E5000 ; sets maximum accelerations, mm/sec^2
M203 X200 Y200 Z12 E120 ; sets maximum feedrates, mm/sec
M204 P1250 R1250 T1250 ; sets acceleration (P, T) and retract acceleration (R), mm/sec^2
M205 X8.00 Y8.00 Z0.40 E1.50 ; sets the jerk limits, mm/sec
M205 S0 T0 ; sets the minimum extruding and travel feed rate, mm/sec
M107
M115 U3.8.1 ; tell printer latest fw version
G90 ; use absolute coordinates
M83 ; extruder relative mode
M104 S215 ; set extruder temp
M140 S60 ; set bed temp
M190 S60 ; wait for bed temp
M109 S215 ; wait for extruder temp
G28 W ; home all without mesh bed level
G80 ; mesh bed leveling
G1 Y-3.0 F1000.0 ; go outside print area
G92 E0.0
G1 X60.0 E9.0 F1000.0 ; intro line
M73 Q0 S63
M73 P0 R63
G1 X100.0 E12.5 F1000.0 ; intro line
G92 E0.0
M221 S95
M900 K30 ; Filament gcode
G21 ; set units to millimeters
G90 ; use absolute coordinates
M83 ; use relative distances for extrusion
;BEFORE_LAYER_CHANGE
G92 E0.0
;0.2


G1 E-0.80000 F2100.00000
G1 Z0.600 F10800.000
;AFTER_LAYER_CHANGE
;0.2
G1 X29.217 Y54.807
G1 Z0.200
G1 E0.80000 F2100.00000
M204 S1000
G1 F1200
G1 X29.752 Y54.565 E0.01839
G1 X30.332 Y54.475 E0.01839
G1 X84.381 Y54.474 E1.69469
G1 X85.208 Y54.638 E0.02642
G1 X85.911 Y55.101 E0.02642
G1 X86.389 Y55.800 E0.02653
G1 X86.566 Y56.624 E0.02642
G1 X86.566 Y159.666 E3.23082
G1 X86.504 Y160.180 E0.01623
G1 X86.325 Y160.662 E0.01612
G1 X85.989 Y161.143 E0.01839
G1 X85.535 Y161.520 E0.01851
G1 X84.996 Y161.762 E0.01851
G1 X84.413 Y161.851 E0.01851
G1 X30.367 Y161.851 E1.69458
G1 X29.860 Y161.789 E0.01601
G1 X29.378 Y161.610 E0.01612
G1 X28.894 Y161.272 E0.01851
G1 X28.516 Y160.814 E0.01862
G1 X28.275 Y160.271 E0.01862
G1 X28.189 Y159.683 E0.01862
G1 X28.189 Y56.659 E3.23025
G1 X28.251 Y56.145 E0.01623
G1 X28.431 Y55.663 E0.01612
G1 X28.766 Y55.182 E0.01839
G1 X29.171 Y54.845 E0.01651
G1 F8640
G1 X29.752 Y54.565 E-0.14886
G1 X30.332 Y54.475 E-0.13546
G1 X32.392 Y54.475 E-0.47568
G1 E-0.04000 F2100.00000
G1 Z0.800 F10800.000
G1 X79.387 Y153.270
G1 Z0.200
G1 E0.80000 F2100.00000
G1 F1200
G1 X79.872 Y153.122 E0.01592
G1 X80.355 Y153.075 E0.01522
G1 X80.880 Y153.122 E0.01652
G1 X81.369 Y153.270 E0.01601
G1 X81.817 Y153.509 E0.01592
G1 X82.209 Y153.831 E0.01592
G1 X82.531 Y154.224 E0.01592
G1 X82.770 Y154.672 E0.01592
G1 X82.918 Y155.157 E0.01592
G1 X82.968 Y155.663 E0.01592
G1 X82.918 Y156.168 E0.01592
G1 X82.770 Y156.654 E0.01592
G1 X82.531 Y157.101 E0.01592
G1 X82.209 Y157.494 E0.01592
G1 X81.817 Y157.816 E0.01592
G1 X81.369 Y158.055 E0.01592
G1 X80.883 Y158.203 E0.01592
G1 X80.378 Y158.253 E0.01592
G1 X79.872 Y158.203 E0.01592
G1 X79.387 Y158.055 E0.01592
G1 X78.939 Y157.816 E0.01592
G1 X78.546 Y157.494 E0.01592
G1 X78.224 Y157.102 E0.01592
G1 X77.985 Y156.654 E0.01592
G1 X77.838 Y156.168 E0.01592
G1 X77.788 Y155.663 E0.01592
G1 X77.838 Y155.157 E0.01592
G1 X77.985 Y154.672 E0.01592
G1 X78.224 Y154.224 E0.01592
G1 X78.546 Y153.831 E0.01592
G1 X78.939 Y153.509 E0.01592
G1 X79.334 Y153.298 E0.01404
G1 X79.511 Y153.631 F10800.000
G1 F1200
G1 X79.946 Y153.494 E0.01429
G1 X80.357 Y153.454 E0.01294
G1 X80.808 Y153.494 E0.01419
G1 X81.224 Y153.620 E0.01362
G1 X81.606 Y153.824 E0.01359
G1 X81.941 Y154.099 E0.01359
G1 X82.216 Y154.434 E0.01359
G1 X82.420 Y154.817 E0.01359
G1 X82.546 Y155.231 E0.01359
G1 X82.589 Y155.663 E0.01359
G1 X82.546 Y156.094 E0.01359
G1 X82.420 Y156.509 E0.01359
G1 X82.216 Y156.891 E0.01359
G1 X81.941 Y157.226 E0.01359
G1 X81.606 Y157.501 E0.01359
G1 X81.224 Y157.705 E0.01359
G1 X80.809 Y157.831 E0.01359
G1 X80.378 Y157.874 E0.01359
G1 X79.946 Y157.831 E0.01359
G1 X79.532 Y157.705 E0.01359
G1 X79.149 Y157.501 E0.01359
G1 X78.814 Y157.226 E0.01359
G1 X78.539 Y156.891 E0.01359
G1 X78.335 Y156.509 E0.01359
G1 X78.209 Y156.094 E0.01359
G1 X78.167 Y155.663 E0.01359
G1 X78.209 Y155.231 E0.01359
G1 X78.335 Y154.817 E0.01359
G1 X78.539 Y154.434 E0.01359
G1 X78.814 Y154.099 E0.01359
G1 X79.149 Y153.824 E0.01359
G1 X79.459 Y153.659 E0.01099
G1 X79.561 Y153.234 F10800.000
G1 F8640
G1 X79.946 Y153.494 E-0.11891
G1 X80.357 Y153.454 E-0.09533
G1 X80.808 Y153.494 E-0.10452
G1 X81.224 Y153.620 E-0.10031
G1 X81.606 Y153.824 E-0.10008
G1 X81.941 Y154.099 E-0.10008
G1 X82.216 Y154.434 E-0.10008
G1 X82.299 Y154.590 E-0.04069
G1 E-0.04000 F2100.00000
G1 Z0.800 F10800.000
G1 X36.968 Y155.663
G1 Z0.200
G1 E0.80000 F2100.00000
G1 F1200
G1 X36.918 Y156.168 E0.01592
G1 X36.770 Y156.654 E0.01592
G1 X36.531 Y157.101 E0.01592
G1 X36.209 Y157.494 E0.01592
G1 X35.817 Y157.816 E0.01592
G1 X35.369 Y158.055 E0.01592
G1 X34.883 Y158.203 E0.01592
G1 X34.378 Y158.253 E0.01592
G1 X33.872 Y158.203 E0.01592
G1 X33.387 Y158.055 E0.01592
G1 X32.939 Y157.816 E0.01592
G1 X32.546 Y157.494 E0.01592
G1 X32.224 Y157.102 E0.01592
G1 X31.985 Y156.654 E0.01592
G1 X31.838 Y156.168 E0.01592
G1 X31.788 Y155.663 E0.01592
G1 X31.838 Y155.157 E0.01592
G1 X31.985 Y154.672 E0.01592
G1 X32.224 Y154.224 E0.01592
G1 X32.546 Y153.831 E0.01592
G1 X32.939 Y153.509 E0.01592
G1 X33.387 Y153.270 E0.01592
G1 X33.872 Y153.122 E0.01592
G1 X34.355 Y153.075 E0.01522
G1 X34.880 Y153.122 E0.01652
G1 X35.369 Y153.270 E0.01601
G1 X35.817 Y153.509 E0.01592
G1 X36.209 Y153.831 E0.01592
G1 X36.531 Y154.224 E0.01592
G1 X36.770 Y154.672 E0.01592
G1 X36.918 Y155.157 E0.01592
G1 X36.962 Y155.603 E0.01404
G1 X36.586 Y155.640 F10800.000
G1 F1200
G1 X36.546 Y156.094 E0.01429
G1 X36.420 Y156.509 E0.01359
G1 X36.216 Y156.891 E0.01359
G1 X35.941 Y157.226 E0.01359
G1 X35.606 Y157.501 E0.01359
G1 X35.224 Y157.705 E0.01359
G1 X34.809 Y157.831 E0.01359
G1 X34.378 Y157.874 E0.01359
G1 X33.946 Y157.831 E0.01359
G1 X33.532 Y157.705 E0.01359
G1 X33.149 Y157.501 E0.01359
G1 X32.814 Y157.226 E0.01359
G1 X32.539 Y156.891 E0.01359
G1 X32.335 Y156.509 E0.01359
G1 X32.209 Y156.094 E0.01359
G1 X32.167 Y155.663 E0.01359
G1 X32.209 Y155.231 E0.01359
G1 X32.335 Y154.817 E0.01359
G1 X32.539 Y154.434 E0.01359
G1 X32.814 Y154.099 E0.01359
G1 X33.149 Y153.824 E0.01359
G1 X33.532 Y153.620 E0.01359
G1 X33.946 Y153.494 E0.01359
G1 X34.357 Y153.454 E0.01294
G1 X34.808 Y153.494 E0.01419
G1 X35.224 Y153.620 E0.01362
G1 X35.606 Y153.824 E0.01359
G1 X35.941 Y154.099 E0.01359
G1 X36.216 Y154.434 E0.01359
G1 X36.420 Y154.817 E0.01359
G1 X36.546 Y155.231 E0.01359
G1 X36.581 Y155.580 E0.01099
G1 X36.934 Y155.837 F10800.000
G1 F8640
G1 X36.546 Y156.094 E-0.11891
G1 X36.420 Y156.509 E-0.10008
G1 X36.216 Y156.891 E-0.10008
G1 X35.941 Y157.226 E-0.10008
G1 X35.606 Y157.501 E-0.10008
G1 X35.224 Y157.705 E-0.10008
G1 X34.809 Y157.831 E-0.10008
G1 X34.634 Y157.848 E-0.04061
G1 E-0.04000 F2100.00000
G1 Z0.800 F10800.000
G1 X36.291 Y91.076
G1 Z0.200
G1 E0.80000 F2100.00000
G1 F1200
G1 X56.465 Y91.076 E0.63255
G1 X56.465 Y144.250 E1.66724
G1 X36.291 Y144.250 E0.63255
G1 X36.291 Y91.136 E1.66536
G1 X36.668 Y91.453 F10800.000
G1 F1200
G1 X56.088 Y91.453 E0.60890
G1 X56.088 Y143.873 E1.64359
G1 X36.668 Y143.873 E0.60890
G1 X36.668 Y91.513 E1.64171
G1 X36.621 Y91.055 F10800.000
G1 F8640
G1 X39.959 Y91.502 E-0.76000
G1 E-0.04000 F2100.00000
G1 Z0.800 F10800.000
G1 X40.813 Y77.441
G1 Z0.200
G1 E0.80000 F2100.00000
G1 F1200
G1 X40.105 Y77.063 E0.02514
G1 X39.486 Y76.555 E0.02514
G1 X38.977 Y75.935 E0.02514
G1 X38.599 Y75.228 E0.02514
G1 X38.366 Y74.461 E0.02514
G1 X38.288 Y73.663 E0.02514
G1 X38.366 Y72.865 E0.02514
G1 X38.599 Y72.098 E0.02514
G1 X38.977 Y71.390 E0.02514
G1 X39.486 Y70.771 E0.02514
G1 X40.105 Y70.262 E0.02514
G1 X40.813 Y69.884 E0.02514
G1 X41.580 Y69.651 E0.02514
G1 X42.341 Y69.576 E0.02398
G1 X43.173 Y69.651 E0.02619
G1 X43.943 Y69.884 E0.02523
G1 X44.650 Y70.262 E0.02514
G1 X45.270 Y70.771 E0.02514
G1 X45.778 Y71.390 E0.02514
G1 X46.156 Y72.098 E0.02514
G1 X46.389 Y72.865 E0.02514
G1 X46.468 Y73.663 E0.02514
G1 X46.389 Y74.461 E0.02514
G1 X46.156 Y75.228 E0.02514
G1 X45.778 Y75.935 E0.02514
G1 X45.270 Y76.555 E0.02514
G1 X44.650 Y77.063 E0.02514
G1 X43.943 Y77.441 E0.02514
G1 X43.176 Y77.674 E0.02514
G1 X42.378 Y77.753 E0.02514
G1 X41.580 Y77.674 E0.02514
G1 X40.870 Y77.459 E0.02326
G1 X40.979 Y77.098 F10800.000
G1 F1200
G1 X40.316 Y76.748 E0.02351
G1 X39.754 Y76.287 E0.02281
G1 X39.292 Y75.724 E0.02281
G1 X38.949 Y75.083 E0.02281
G1 X38.738 Y74.387 E0.02281
G1 X38.667 Y73.663 E0.02281
G1 X38.738 Y72.939 E0.02281
G1 X38.949 Y72.243 E0.02281
G1 X39.292 Y71.601 E0.02281
G1 X39.754 Y71.039 E0.02281
G1 X40.316 Y70.577 E0.02281
G1 X40.958 Y70.234 E0.02281
G1 X41.654 Y70.023 E0.02281
G1 X42.343 Y69.955 E0.02170
G1 X43.101 Y70.023 E0.02387
G1 X43.798 Y70.234 E0.02284
G1 X44.439 Y70.577 E0.02281
G1 X45.002 Y71.039 E0.02281
G1 X45.463 Y71.601 E0.02281
G1 X45.806 Y72.243 E0.02281
G1 X46.017 Y72.939 E0.02281
G1 X46.089 Y73.663 E0.02281
G1 X46.017 Y74.387 E0.02281
G1 X45.806 Y75.083 E0.02281
G1 X45.463 Y75.724 E0.02281
G1 X45.002 Y76.287 E0.02281
G1 X44.439 Y76.748 E0.02281
G1 X43.798 Y77.091 E0.02281
G1 X43.102 Y77.302 E0.02281
G1 X42.378 Y77.374 E0.02281
G1 X41.654 Y77.302 E0.02281
G1 X41.037 Y77.115 E0.02021
G1 X40.663 Y77.343 F10800.000
G1 F8640
G1 X40.316 Y76.748 E-0.18678
G1 X39.754 Y76.287 E-0.16798
G1 X39.292 Y75.724 E-0.16798
G1 X38.949 Y75.083 E-0.16798
G1 X38.862 Y74.796 E-0.06928
G1 E-0.04000 F2100.00000
G1 Z0.800 F10800.000
G1 X35.369 Y63.055
G1 Z0.200
G1 E0.80000 F2100.00000
G1 F1200
G1 X34.883 Y63.203 E0.01592
G1 X34.378 Y63.253 E0.01592
G1 X33.872 Y63.203 E0.01592
G1 X33.387 Y63.055 E0.01592
G1 X32.939 Y62.816 E0.01592
G1 X32.546 Y62.494 E0.01592
G1 X32.224 Y62.102 E0.01592
G1 X31.985 Y61.654 E0.01592
G1 X31.838 Y61.168 E0.01592
G1 X31.788 Y60.663 E0.01592
G1 X31.838 Y60.157 E0.01592
G1 X31.985 Y59.672 E0.01592
G1 X32.224 Y59.224 E0.01592
G1 X32.546 Y58.831 E0.01592
G1 X32.939 Y58.509 E0.01592
G1 X33.387 Y58.270 E0.01592
G1 X33.872 Y58.122 E0.01592
G1 X34.355 Y58.075 E0.01522
G1 X34.880 Y58.122 E0.01652
G1 X35.369 Y58.270 E0.01600
G1 X35.817 Y58.509 E0.01592
G1 X36.209 Y58.831 E0.01592
G1 X36.531 Y59.224 E0.01592
G1 X36.770 Y59.672 E0.01592
G1 X36.918 Y60.157 E0.01592
G1 X36.968 Y60.663 E0.01592
G1 X36.918 Y61.168 E0.01592
G1 X36.770 Y61.654 E0.01592
G1 X36.531 Y62.102 E0.01592
G1 X36.209 Y62.494 E0.01592
G1 X35.817 Y62.816 E0.01592
G1 X35.422 Y63.027 E0.01404
G1 X35.244 Y62.695 F10800.000
G1 F1200
G1 X34.809 Y62.831 E0.01429
G1 X34.378 Y62.874 E0.01359
G1 X33.946 Y62.831 E0.01359
G1 X33.532 Y62.705 E0.01359
G1 X33.149 Y62.501 E0.01359
G1 X32.814 Y62.226 E0.01359
G1 X32.539 Y61.891 E0.01359
G1 X32.335 Y61.509 E0.01359
G1 X32.209 Y61.094 E0.01359
G1 X32.167 Y60.663 E0.01359
G1 X32.209 Y60.231 E0.01359
G1 X32.335 Y59.817 E0.01359
G1 X32.539 Y59.434 E0.01359
G1 X32.814 Y59.099 E0.01359
G1 X33.149 Y58.824 E0.01359
G1 X33.532 Y58.620 E0.01359
G1 X33.946 Y58.494 E0.01359
G1 X34.357 Y58.454 E0.01294
G1 X34.808 Y58.494 E0.01419
G1 X35.224 Y58.620 E0.01362
G1 X35.606 Y58.824 E0.01359
G1 X35.941 Y59.099 E0.01359
G1 X36.216 Y59.434 E0.01359
G1 X36.420 Y59.817 E0.01359
G1 X36.546 Y60.231 E0.01359
G1 X36.589 Y60.663 E0.01359
G1 X36.546 Y61.094 E0.01359
G1 X36.420 Y61.509 E0.01359
G1 X36.216 Y61.891 E0.01359
G1 X35.941 Y62.226 E0.01359
G1 X35.606 Y62.501 E0.01359
G1 X35.297 Y62.666 E0.01099
G1 X35.195 Y63.092 F10800.000
G1 F8640
G1 X34.809 Y62.831 E-0.11890
G1 X34.378 Y62.874 E-0.10008
G1 X33.946 Y62.831 E-0.10008
G1 X33.532 Y62.705 E-0.10008
G1 X33.149 Y62.501 E-0.10008
G1 X32.814 Y62.226 E-0.10008
G1 X32.539 Y61.891 E-0.10008
G1 X32.456 Y61.736 E-0.04061
G1 E-0.04000 F2100.00000
G1 Z0.800 F10800.000
G1 X65.599 Y72.098
G1 Z0.200
G1 E0.80000 F2100.00000
G1 F1200
G1 X65.977 Y71.390 E0.02514
G1 X66.486 Y70.771 E0.02514
G1 X67.105 Y70.262 E0.02514
G1 X67.813 Y69.884 E0.02514
G1 X68.580 Y69.651 E0.02514
G1 X69.341 Y69.576 E0.02398
G1 X70.173 Y69.651 E0.02619
G1 X70.943 Y69.884 E0.02523
G1 X71.650 Y70.262 E0.02514
G1 X72.270 Y70.771 E0.02514
G1 X72.778 Y71.390 E0.02514
G1 X73.156 Y72.098 E0.02514
G1 X73.389 Y72.865 E0.02514
G1 X73.468 Y73.663 E0.02514
G1 X73.389 Y74.461 E0.02514
G1 X73.156 Y75.228 E0.02514
G1 X72.778 Y75.935 E0.02514
G1 X72.270 Y76.555 E0.02514
G1 X71.650 Y77.063 E0.02514
G1 X70.943 Y77.441 E0.02514
G1 X70.176 Y77.674 E0.02514
G1 X69.378 Y77.753 E0.02514
G1 X68.580 Y77.674 E0.02514
G1 X67.813 Y77.441 E0.02514
G1 X67.105 Y77.063 E0.02514
G1 X66.486 Y76.555 E0.02514
G1 X65.977 Y75.935 E0.02514
G1 X65.599 Y75.228 E0.02514
G1 X65.366 Y74.461 E0.02514
G1 X65.288 Y73.663 E0.02514
G1 X65.366 Y72.865 E0.02514
G1 X65.582 Y72.155 E0.02326
G1 X65.943 Y72.264 F10800.000
G1 F1200
G1 X66.292 Y71.601 E0.02351
G1 X66.754 Y71.039 E0.02281
G1 X67.316 Y70.577 E0.02281
G1 X67.958 Y70.234 E0.02281
G1 X68.654 Y70.023 E0.02281
G1 X69.343 Y69.955 E0.02170
G1 X70.101 Y70.023 E0.02387
G1 X70.798 Y70.234 E0.02284
G1 X71.439 Y70.577 E0.02281
G1 X72.002 Y71.039 E0.02281
G1 X72.463 Y71.601 E0.02281
G1 X72.806 Y72.243 E0.02281
G1 X73.017 Y72.939 E0.02281
G1 X73.089 Y73.663 E0.02281
G1 X73.017 Y74.387 E0.02281
G1 X72.806 Y75.083 E0.02281
G1 X72.463 Y75.724 E0.02281
G1 X72.002 Y76.287 E0.02281
G1 X71.439 Y76.748 E0.02281
G1 X70.798 Y77.091 E0.02281
G1 X70.102 Y77.302 E0.02281
G1 X69.378 Y77.374 E0.02281
G1 X68.654 Y77.302 E0.02281
G1 X67.958 Y77.091 E0.02281
G1 X67.316 Y76.748 E0.02281
G1 X66.754 Y76.287 E0.02281
G1 X66.292 Y75.724 E0.02281
G1 X65.949 Y75.083 E0.02281
G1 X65.738 Y74.387 E0.02281
G1 X65.667 Y73.663 E0.02281
G1 X65.738 Y72.939 E0.02281
G1 X65.925 Y72.322 E0.02021
G1 X65.698 Y71.948 F10800.000
G1 F8640
G1 X66.292 Y71.601 E-0.18678
G1 X66.754 Y71.039 E-0.16798
G1 X67.316 Y70.577 E-0.16798
G1 X67.958 Y70.234 E-0.16798
G1 X68.245 Y70.147 E-0.06928
G1 E-0.04000 F2100.00000
G1 Z0.800 F10800.000
G1 X78.224 Y62.102
G1 Z0.200
G1 E0.80000 F2100.00000
G1 F1200
G1 X77.985 Y61.654 E0.01592
G1 X77.838 Y61.168 E0.01592
G1 X77.788 Y60.663 E0.01592
G1 X77.838 Y60.157 E0.01592
G1 X77.985 Y59.671 E0.01592
G1 X78.224 Y59.224 E0.01592
G1 X78.546 Y58.831 E0.01592
G1 X78.939 Y58.509 E0.01592
G1 X79.389 Y58.269 E0.01601
G1 X79.895 Y58.120 E0.01652
G1 X80.378 Y58.073 E0.01522
G1 X80.883 Y58.122 E0.01592
G1 X81.369 Y58.270 E0.01592
G1 X81.817 Y58.509 E0.01592
G1 X82.209 Y58.831 E0.01592
G1 X82.531 Y59.224 E0.01592
G1 X82.770 Y59.672 E0.01592
G1 X82.918 Y60.157 E0.01592
G1 X82.968 Y60.663 E0.01592
G1 X82.918 Y61.168 E0.01592
G1 X82.770 Y61.654 E0.01592
G1 X82.531 Y62.102 E0.01592
G1 X82.209 Y62.494 E0.01592
G1 X81.817 Y62.816 E0.01592
G1 X81.369 Y63.055 E0.01592
G1 X80.883 Y63.203 E0.01592
G1 X80.378 Y63.253 E0.01592
G1 X79.872 Y63.203 E0.01592
G1 X79.387 Y63.055 E0.01592
G1 X78.939 Y62.816 E0.01592
G1 X78.546 Y62.494 E0.01592
G1 X78.262 Y62.148 E0.01404
G1 X78.554 Y61.909 F10800.000
G1 F1200
G1 X78.335 Y61.509 E0.01429
G1 X78.209 Y61.094 E0.01359
G1 X78.167 Y60.663 E0.01359
G1 X78.209 Y60.231 E0.01359
G1 X78.335 Y59.817 E0.01359
G1 X78.539 Y59.434 E0.01359
G1 X78.814 Y59.099 E0.01359
G1 X79.149 Y58.824 E0.01359
G1 X79.532 Y58.619 E0.01362
G1 X79.967 Y58.492 E0.01419
G1 X80.378 Y58.452 E0.01294
G1 X80.809 Y58.494 E0.01359
G1 X81.224 Y58.620 E0.01359
G1 X81.606 Y58.824 E0.01359
G1 X81.941 Y59.099 E0.01359
G1 X82.216 Y59.434 E0.01359
G1 X82.420 Y59.817 E0.01359
G1 X82.546 Y60.231 E0.01359
G1 X82.589 Y60.663 E0.01359
G1 X82.546 Y61.094 E0.01359
G1 X82.420 Y61.509 E0.01359
G1 X82.216 Y61.891 E0.01359
G1 X81.941 Y62.226 E0.01359
G1 X81.606 Y62.501 E0.01359
G1 X81.224 Y62.705 E0.01359
G1 X80.809 Y62.831 E0.01359
G1 X80.378 Y62.874 E0.01359
G1 X79.946 Y62.831 E0.01359
G1 X79.532 Y62.705 E0.01359
G1 X79.149 Y62.501 E0.01359
G1 X78.814 Y62.226 E0.01359
G1 X78.592 Y61.955 E0.01099
G1 X78.155 Y61.938 F10800.000
G1 F8640
G1 X78.335 Y61.509 E-0.11891
G1 X78.209 Y61.094 E-0.10008
G1 X78.167 Y60.663 E-0.10008
G1 X78.209 Y60.231 E-0.10008
G1 X78.335 Y59.817 E-0.10008
G1 X78.539 Y59.434 E-0.10008
G1 X78.814 Y59.099 E-0.10008
G1 X78.950 Y58.988 E-0.04061
G1 E-0.04000 F2100.00000
