; generated by PrusaSlicer 2.0.0+linux64 on 2019-12-15 at 11:36:20

; 

; external perimeters extrusion width = 0.45mm
; perimeters extrusion width = 0.45mm
; infill extrusion width = 0.45mm
; solid infill extrusion width = 0.45mm
; top infill extrusion width = 0.40mm
; first layer extrusion width = 0.42mm

M73 P0 R265
M73 Q0 S267
M201 X1000 Y1000 Z1000 E5000 ; sets maximum accelerations, mm/sec^2
M203 X200 Y200 Z12 E120 ; sets maximum feedrates, mm/sec
M204 P1250 R1250 T1250 ; sets acceleration (P, T) and retract acceleration (R), mm/sec^2
M205 X8.00 Y8.00 Z0.40 E1.50 ; sets the jerk limits, mm/sec
M205 S0 T0 ; sets the minimum extruding and travel feed rate, mm/sec
M107
M115 U3.8.1 ; tell printer latest fw version
G90 ; use absolute coordinates
M83 ; extruder relative mode
M104 S215 ; set extruder temp
M140 S60 ; set bed temp
M190 S60 ; wait for bed temp
M109 S215 ; wait for extruder temp
G28 W ; home all without mesh bed level
G80 ; mesh bed leveling
G1 Y-3.0 F1000.0 ; go outside print area
G92 E0.0
G1 X60.0 E9.0 F1000.0 ; intro line
M73 Q0 S267
M73 P0 R265
G1 X100.0 E12.5 F1000.0 ; intro line
G92 E0.0
M221 S95
M900 K30 ; Filament gcode
G21 ; set units to millimeters
G90 ; use absolute coordinates
M83 ; use relative distances for extrusion
;BEFORE_LAYER_CHANGE
G92 E0.0
;0.2


G1 E-0.80000 F2100.00000
G1 Z0.600 F10800.000
;AFTER_LAYER_CHANGE
;0.2
G1 X46.074 Y56.243
G1 Z0.200
G1 E0.80000 F2100.00000
M204 S1000
G1 F1200
G1 X46.608 Y56.002 E0.01839
G1 X47.188 Y55.911 E0.01839
G1 X101.238 Y55.910 E1.69469
G1 X102.064 Y56.074 E0.02642
G1 X102.768 Y56.538 E0.02642
G1 X103.245 Y57.236 E0.02653
G1 X103.422 Y58.060 E0.02642
G1 X103.423 Y161.103 E3.23082
G1 X103.360 Y161.617 E0.01623
G1 X103.181 Y162.099 E0.01612
G1 X102.846 Y162.580 E0.01839
G1 X102.391 Y162.957 E0.01851
G1 X101.853 Y163.198 E0.01851
G1 X101.269 Y163.287 E0.01851
G1 X47.223 Y163.288 E1.69458
G1 X46.716 Y163.225 E0.01601
G1 X46.235 Y163.046 E0.01612
G1 X45.751 Y162.708 E0.01851
G1 X45.373 Y162.250 E0.01862
G1 X45.132 Y161.707 E0.01862
G1 X45.046 Y161.120 E0.01862
G1 X45.045 Y58.095 E3.23025
G1 X45.108 Y57.581 E0.01623
G1 X45.287 Y57.100 E0.01612
G1 X45.623 Y56.618 E0.01839
G1 X46.028 Y56.282 E0.01651
G1 F8640
G1 X46.608 Y56.002 E-0.14886
G1 X47.188 Y55.911 E-0.13546
G1 X49.248 Y55.911 E-0.47568
G1 E-0.04000 F2100.00000
G1 Z0.800 F10800.000
G1 X47.821 Y58.686
G1 Z0.200
G1 E0.80000 F2100.00000
G1 F1200
G1 X100.647 Y58.686 E1.65632
G1 X100.647 Y160.512 E3.19268
G1 X47.821 Y160.512 E1.65632
G1 X47.821 Y58.746 E3.19080
G1 X47.444 Y58.309 F10800.000
G1 F1200
G1 X101.024 Y58.309 E1.67996
G1 X101.024 Y160.889 E3.21632
G1 X47.444 Y160.889 E1.67996
G1 X47.444 Y58.369 E3.21444
G1 X47.818 Y58.451 F10800.000
G1 F8640
G1 X50.735 Y58.365 E-0.76000
G1 E-0.04000 F2100.00000
G1 Z0.800 F10800.000
G1 X100.534 Y59.562
G1 Z0.200
G1 E0.80000 F2100.00000
G1 F1200
G1 X99.940 Y58.969 E0.02634
G1 X99.407 Y58.969 E0.01675
G1 X100.364 Y59.926 E0.04250
G1 X100.364 Y60.460 E0.01675
G1 X98.873 Y58.969 E0.06620
G1 X98.339 Y58.969 E0.01675
G1 X100.364 Y60.994 E0.08989
G1 X100.364 Y61.528 E0.01675
G1 X97.805 Y58.969 E0.11359
G1 X97.271 Y58.969 E0.01675
G1 X100.364 Y62.062 E0.13728
G1 X100.364 Y62.596 E0.01675
G1 X96.737 Y58.969 E0.16098
G1 X96.204 Y58.969 E0.01675
G1 X100.364 Y63.129 E0.18467
G1 X100.364 Y63.663 E0.01675
G1 X95.670 Y58.969 E0.20837
G1 X95.136 Y58.969 E0.01675
G1 X100.364 Y64.197 E0.23206
G1 X100.364 Y64.731 E0.01675
G1 X94.602 Y58.969 E0.25576
G1 X94.068 Y58.969 E0.01675
G1 X100.364 Y65.265 E0.27945
G1 X100.364 Y65.798 E0.01675
G1 X93.535 Y58.969 E0.30315
G1 X93.001 Y58.969 E0.01675
G1 X100.364 Y66.332 E0.32684
G1 X100.364 Y66.866 E0.01675
G1 X92.467 Y58.969 E0.35054
G1 X91.933 Y58.969 E0.01675
G1 X100.364 Y67.400 E0.37423
G1 X100.364 Y67.934 E0.01675
G1 X91.399 Y58.969 E0.39793
G1 X90.865 Y58.969 E0.01675
G1 X100.364 Y68.468 E0.42162
G1 X100.364 Y69.001 E0.01675
G1 X90.332 Y58.969 E0.44532
G1 X89.798 Y58.969 E0.01675
G1 X100.364 Y69.535 E0.46901
M73 Q0 S266
M73 P0 R264
G1 X100.364 Y70.069 E0.01675
G1 X89.264 Y58.969 E0.49271
G1 X88.730 Y58.969 E0.01675
G1 X100.364 Y70.603 E0.51640
G1 X100.364 Y71.137 E0.01675
G1 X88.196 Y58.969 E0.54010
G1 X87.663 Y58.969 E0.01675
G1 X100.364 Y71.671 E0.56379
G1 X100.364 Y72.204 E0.01675
G1 X87.129 Y58.969 E0.58749
G1 X86.595 Y58.969 E0.01675
G1 X100.364 Y72.738 E0.61118
G1 X100.364 Y73.272 E0.01675
G1 X86.061 Y58.969 E0.63488
G1 X85.527 Y58.969 E0.01675
G1 X100.364 Y73.806 E0.65857
G1 X100.364 Y74.340 E0.01675
G1 X84.993 Y58.969 E0.68227
G1 X84.460 Y58.969 E0.01675
G1 X100.364 Y74.873 E0.70596
G1 X100.364 Y75.407 E0.01675
G1 X83.926 Y58.969 E0.72966
G1 X83.392 Y58.969 E0.01675
G1 X100.364 Y75.941 E0.75335
G1 X100.364 Y76.475 E0.01675
G1 X82.858 Y58.969 E0.77705
G1 X82.324 Y58.969 E0.01675
G1 X100.364 Y77.009 E0.80074
G1 X100.364 Y77.543 E0.01675
G1 X81.790 Y58.969 E0.82444
G1 X81.257 Y58.969 E0.01675
G1 X100.364 Y78.076 E0.84813
G1 X100.364 Y78.610 E0.01675
G1 X80.723 Y58.969 E0.87183
G1 X80.189 Y58.969 E0.01675
G1 X100.364 Y79.144 E0.89552
G1 X100.364 Y79.678 E0.01675
G1 X79.655 Y58.969 E0.91922
G1 X79.121 Y58.969 E0.01675
G1 X100.364 Y80.212 E0.94291
G1 X100.364 Y80.745 E0.01675
G1 X78.588 Y58.969 E0.96661
G1 X78.054 Y58.969 E0.01675
G1 X100.364 Y81.279 E0.99030
G1 X100.364 Y81.813 E0.01675
G1 X77.520 Y58.969 E1.01400
G1 X76.986 Y58.969 E0.01675
G1 X100.364 Y82.347 E1.03769
G1 X100.364 Y82.881 E0.01675
G1 X76.452 Y58.969 E1.06139
G1 X75.918 Y58.969 E0.01675
G1 X100.364 Y83.415 E1.08508
G1 X100.364 Y83.948 E0.01675
G1 X75.385 Y58.969 E1.10878
G1 X74.851 Y58.969 E0.01675
G1 X100.364 Y84.482 E1.13247
G1 X100.364 Y85.016 E0.01675
G1 X74.317 Y58.969 E1.15617
G1 X73.783 Y58.969 E0.01675
G1 X100.364 Y85.550 E1.17986
G1 X100.364 Y86.084 E0.01675
G1 X73.249 Y58.969 E1.20356
G1 X72.716 Y58.969 E0.01675
G1 X100.364 Y86.618 E1.22725
G1 X100.364 Y87.151 E0.01675
G1 X72.182 Y58.969 E1.25095
G1 X71.648 Y58.969 E0.01675
G1 X100.364 Y87.685 E1.27464
G1 X100.364 Y88.219 E0.01675
G1 X71.114 Y58.969 E1.29834
G1 X70.580 Y58.969 E0.01675
G1 X100.364 Y88.753 E1.32203
G1 X100.364 Y89.287 E0.01675
G1 X70.046 Y58.969 E1.34573
G1 X69.513 Y58.969 E0.01675
G1 X100.364 Y89.820 E1.36942
G1 X100.364 Y90.354 E0.01675
G1 X68.979 Y58.969 E1.39312
M73 Q0 S265
M73 P0 R263
G1 X68.445 Y58.969 E0.01675
G1 X100.364 Y90.888 E1.41681
G1 X100.364 Y91.422 E0.01675
G1 X67.911 Y58.969 E1.44051
G1 X67.377 Y58.969 E0.01675
G1 X100.364 Y91.956 E1.46420
G1 X100.364 Y92.490 E0.01675
G1 X66.843 Y58.969 E1.48790
G1 X66.310 Y58.969 E0.01675
G1 X100.364 Y93.023 E1.51159
G1 X100.364 Y93.557 E0.01675
G1 X65.776 Y58.969 E1.53529
G1 X65.242 Y58.969 E0.01675
G1 X100.364 Y94.091 E1.55898
G1 X100.364 Y94.625 E0.01675
G1 X64.708 Y58.969 E1.58268
G1 X64.174 Y58.969 E0.01675
G1 X100.364 Y95.159 E1.60637
G1 X100.364 Y95.693 E0.01675
G1 X63.641 Y58.969 E1.63007
G1 X63.107 Y58.969 E0.01675
G1 X100.364 Y96.226 E1.65376
G1 X100.364 Y96.760 E0.01675
G1 X62.573 Y58.969 E1.67746
G1 X62.039 Y58.969 E0.01675
G1 X100.364 Y97.294 E1.70115
G1 X100.364 Y97.828 E0.01675
G1 X61.505 Y58.969 E1.72485
G1 X60.971 Y58.969 E0.01675
G1 X100.364 Y98.362 E1.74854
G1 X100.364 Y98.895 E0.01675
G1 X60.438 Y58.969 E1.77224
G1 X59.904 Y58.969 E0.01675
G1 X100.364 Y99.429 E1.79593
G1 X100.364 Y99.963 E0.01675
G1 X59.370 Y58.969 E1.81963
G1 X58.836 Y58.969 E0.01675
G1 X100.364 Y100.497 E1.84332
G1 X100.364 Y101.031 E0.01675
G1 X58.302 Y58.969 E1.86702
G1 X57.769 Y58.969 E0.01675
G1 X100.364 Y101.565 E1.89071
G1 X100.364 Y102.098 E0.01675
G1 X57.235 Y58.969 E1.91441
G1 X56.701 Y58.969 E0.01675
G1 X100.364 Y102.632 E1.93810
M73 Q1 S264
M73 P1 R262
G1 X100.364 Y103.166 E0.01675
G1 X56.167 Y58.969 E1.96180
G1 X55.633 Y58.969 E0.01675
G1 X100.364 Y103.700 E1.98549
G1 X100.364 Y104.234 E0.01675
G1 X55.099 Y58.969 E2.00919
G1 X54.566 Y58.969 E0.01675
G1 X100.364 Y104.767 E2.03288
G1 X100.364 Y105.301 E0.01675
G1 X54.032 Y58.969 E2.05658
G1 X53.498 Y58.969 E0.01675
G1 X100.364 Y105.835 E2.08027
G1 X100.364 Y106.369 E0.01675
G1 X52.964 Y58.969 E2.10397
G1 X52.430 Y58.969 E0.01675
G1 X100.364 Y106.903 E2.12766
G1 X100.364 Y107.437 E0.01675
G1 X51.896 Y58.969 E2.15136
G1 X51.363 Y58.969 E0.01675
G1 X100.364 Y107.970 E2.17505
G1 X100.364 Y108.504 E0.01675
G1 X50.829 Y58.969 E2.19875
G1 X50.295 Y58.969 E0.01675
G1 X100.364 Y109.038 E2.22244
G1 X100.364 Y109.572 E0.01675
G1 X49.761 Y58.969 E2.24614
G1 X49.227 Y58.969 E0.01675
G1 X100.364 Y110.106 E2.26983
G1 X100.364 Y110.640 E0.01675
G1 X48.694 Y58.969 E2.29353
G1 X48.160 Y58.969 E0.01675
G1 X100.364 Y111.173 E2.31722
G1 X100.364 Y111.707 E0.01675
G1 X48.104 Y59.447 E2.31970
G1 X48.104 Y59.981 E0.01675
G1 X100.364 Y112.241 E2.31970
M73 Q1 S263
M73 P1 R261
G1 X100.364 Y112.775 E0.01675
G1 X48.104 Y60.515 E2.31970
G1 X48.104 Y61.048 E0.01675
G1 X100.364 Y113.309 E2.31970
G1 X100.364 Y113.842 E0.01675
G1 X48.104 Y61.582 E2.31970
G1 X48.104 Y62.116 E0.01675
G1 X100.364 Y114.376 E2.31970
G1 X100.364 Y114.910 E0.01675
G1 X48.104 Y62.650 E2.31970
G1 X48.104 Y63.184 E0.01675
G1 X100.364 Y115.444 E2.31970
G1 X100.364 Y115.978 E0.01675
G1 X48.104 Y63.717 E2.31970
G1 X48.104 Y64.251 E0.01675
G1 X100.364 Y116.512 E2.31970
G1 X100.364 Y117.045 E0.01675
G1 X48.104 Y64.785 E2.31970
G1 X48.104 Y65.319 E0.01675
G1 X100.364 Y117.579 E2.31970
G1 X100.364 Y118.113 E0.01675
G1 X48.104 Y65.853 E2.31970
G1 X48.104 Y66.387 E0.01675
G1 X100.364 Y118.647 E2.31970
G1 X100.364 Y119.181 E0.01675
G1 X48.104 Y66.920 E2.31970
G1 X48.104 Y67.454 E0.01675
G1 X100.364 Y119.714 E2.31970
G1 X100.364 Y120.248 E0.01675
G1 X48.104 Y67.988 E2.31970
G1 X48.104 Y68.522 E0.01675
G1 X100.364 Y120.782 E2.31970
G1 X100.364 Y121.316 E0.01675
G1 X48.104 Y69.056 E2.31970
M73 Q1 S262
M73 P1 R260
G1 X48.104 Y69.590 E0.01675
G1 X100.364 Y121.850 E2.31970
G1 X100.364 Y122.384 E0.01675
G1 X48.104 Y70.123 E2.31970
G1 X48.104 Y70.657 E0.01675
G1 X100.364 Y122.917 E2.31970
G1 X100.364 Y123.451 E0.01675
G1 X48.104 Y71.191 E2.31970
G1 X48.104 Y71.725 E0.01675
G1 X100.364 Y123.985 E2.31970
G1 X100.364 Y124.519 E0.01675
G1 X48.104 Y72.259 E2.31970
G1 X48.104 Y72.792 E0.01675
G1 X100.364 Y125.053 E2.31970
G1 X100.364 Y125.587 E0.01675
G1 X48.104 Y73.326 E2.31970
G1 X48.104 Y73.860 E0.01675
G1 X100.364 Y126.120 E2.31970
G1 X100.364 Y126.654 E0.01675
G1 X48.104 Y74.394 E2.31970
G1 X48.104 Y74.928 E0.01675
G1 X100.364 Y127.188 E2.31970
G1 X100.364 Y127.722 E0.01675
G1 X48.104 Y75.462 E2.31970
G1 X48.104 Y75.995 E0.01675
G1 X100.364 Y128.256 E2.31970
G1 X100.364 Y128.789 E0.01675
G1 X48.104 Y76.529 E2.31970
G1 X48.104 Y77.063 E0.01675
G1 X100.364 Y129.323 E2.31970
G1 X100.364 Y129.857 E0.01675
G1 X48.104 Y77.597 E2.31970
G1 X48.104 Y78.131 E0.01675
G1 X100.364 Y130.391 E2.31970
M73 Q2 S261
M73 P2 R259
G1 X100.364 Y130.925 E0.01675
G1 X48.104 Y78.664 E2.31970
G1 X48.104 Y79.198 E0.01675
G1 X100.364 Y131.459 E2.31970
G1 X100.364 Y131.992 E0.01675
G1 X48.104 Y79.732 E2.31970
G1 X48.104 Y80.266 E0.01675
G1 X100.364 Y132.526 E2.31970
G1 X100.364 Y133.060 E0.01675
G1 X48.104 Y80.800 E2.31970
G1 X48.104 Y81.334 E0.01675
G1 X100.364 Y133.594 E2.31970
G1 X100.364 Y134.128 E0.01675
G1 X48.104 Y81.867 E2.31970
G1 X48.104 Y82.401 E0.01675
G1 X100.364 Y134.661 E2.31970
G1 X100.364 Y135.195 E0.01675
G1 X48.104 Y82.935 E2.31970
G1 X48.104 Y83.469 E0.01675
G1 X100.364 Y135.729 E2.31970
G1 X100.364 Y136.263 E0.01675
G1 X48.104 Y84.003 E2.31970
G1 X48.104 Y84.537 E0.01675
G1 X100.364 Y136.797 E2.31970
G1 X100.364 Y137.331 E0.01675
G1 X48.104 Y85.070 E2.31970
G1 X48.104 Y85.604 E0.01675
G1 X100.364 Y137.864 E2.31970
G1 X100.364 Y138.398 E0.01675
G1 X48.104 Y86.138 E2.31970
G1 X48.104 Y86.672 E0.01675
G1 X100.364 Y138.932 E2.31970
G1 X100.364 Y139.466 E0.01675
G1 X48.104 Y87.206 E2.31970
M73 Q2 S260
M73 P2 R258
G1 X48.104 Y87.739 E0.01675
G1 X100.364 Y140.000 E2.31970
G1 X100.364 Y140.534 E0.01675
G1 X48.104 Y88.273 E2.31970
G1 X48.104 Y88.807 E0.01675
G1 X100.364 Y141.067 E2.31970
G1 X100.364 Y141.601 E0.01675
G1 X48.104 Y89.341 E2.31970
G1 X48.104 Y89.875 E0.01675
G1 X100.364 Y142.135 E2.31970
G1 X100.364 Y142.669 E0.01675
G1 X48.104 Y90.409 E2.31970
G1 X48.104 Y90.942 E0.01675
G1 X100.364 Y143.203 E2.31970
G1 X100.364 Y143.736 E0.01675
G1 X48.104 Y91.476 E2.31970
G1 X48.104 Y92.010 E0.01675
G1 X100.364 Y144.270 E2.31970
G1 X100.364 Y144.804 E0.01675
G1 X48.104 Y92.544 E2.31970
G1 X48.104 Y93.078 E0.01675
G1 X100.364 Y145.338 E2.31970
G1 X100.364 Y145.872 E0.01675
G1 X48.104 Y93.611 E2.31970
G1 X48.104 Y94.145 E0.01675
G1 X100.364 Y146.406 E2.31970
G1 X100.364 Y146.939 E0.01675
G1 X48.104 Y94.679 E2.31970
G1 X48.104 Y95.213 E0.01675
G1 X100.364 Y147.473 E2.31970
G1 X100.364 Y148.007 E0.01675
G1 X48.104 Y95.747 E2.31970
G1 X48.104 Y96.281 E0.01675
G1 X100.364 Y148.541 E2.31970
M73 Q3 S258
M73 P3 R257
G1 X100.364 Y149.075 E0.01675
G1 X48.104 Y96.814 E2.31970
G1 X48.104 Y97.348 E0.01675
G1 X100.364 Y149.609 E2.31970
G1 X100.364 Y150.142 E0.01675
G1 X48.104 Y97.882 E2.31970
G1 X48.104 Y98.416 E0.01675
G1 X100.364 Y150.676 E2.31970
G1 X100.364 Y151.210 E0.01675
G1 X48.104 Y98.950 E2.31970
G1 X48.104 Y99.484 E0.01675
G1 X100.364 Y151.744 E2.31970
G1 X100.364 Y152.278 E0.01675
G1 X48.104 Y100.017 E2.31970
G1 X48.104 Y100.551 E0.01675
G1 X100.364 Y152.811 E2.31970
G1 X100.364 Y153.345 E0.01675
G1 X48.104 Y101.085 E2.31970
G1 X48.104 Y101.619 E0.01675
G1 X100.364 Y153.879 E2.31970
G1 X100.364 Y154.413 E0.01675
G1 X48.104 Y102.153 E2.31970
G1 X48.104 Y102.686 E0.01675
G1 X100.364 Y154.947 E2.31970
G1 X100.364 Y155.481 E0.01675
G1 X48.104 Y103.220 E2.31970
G1 X48.104 Y103.754 E0.01675
G1 X100.364 Y156.014 E2.31970
G1 X100.364 Y156.548 E0.01675
G1 X48.104 Y104.288 E2.31970
G1 X48.104 Y104.822 E0.01675
G1 X100.364 Y157.082 E2.31970
G1 X100.364 Y157.616 E0.01675
G1 X48.104 Y105.356 E2.31970
M73 Q3 S257
M73 P3 R256
G1 X48.104 Y105.889 E0.01675
G1 X100.364 Y158.150 E2.31970
G1 X100.364 Y158.683 E0.01675
G1 X48.104 Y106.423 E2.31970
G1 X48.104 Y106.957 E0.01675
G1 X100.364 Y159.217 E2.31970
G1 X100.364 Y159.751 E0.01675
G1 X48.104 Y107.491 E2.31970
G1 X48.104 Y108.025 E0.01675
G1 X100.308 Y160.229 E2.31723
G1 X99.775 Y160.229 E0.01675
G1 X48.104 Y108.558 E2.29353
G1 X48.104 Y109.092 E0.01675
G1 X99.241 Y160.229 E2.26984
G1 X98.707 Y160.229 E0.01675
G1 X48.104 Y109.626 E2.24614
G1 X48.104 Y110.160 E0.01675
G1 X98.173 Y160.229 E2.22245
G1 X97.639 Y160.229 E0.01675
G1 X48.104 Y110.694 E2.19875
G1 X48.104 Y111.228 E0.01675
G1 X97.105 Y160.229 E2.17506
G1 X96.572 Y160.229 E0.01675
G1 X48.104 Y111.761 E2.15136
G1 X48.104 Y112.295 E0.01675
G1 X96.038 Y160.229 E2.12767
G1 X95.504 Y160.229 E0.01675
G1 X48.104 Y112.829 E2.10397
G1 X48.104 Y113.363 E0.01675
G1 X94.970 Y160.229 E2.08028
G1 X94.436 Y160.229 E0.01675
G1 X48.104 Y113.897 E2.05658
G1 X48.104 Y114.431 E0.01675
G1 X93.903 Y160.229 E2.03289
M73 Q3 S256
M73 P3 R255
G1 X93.369 Y160.229 E0.01675
G1 X48.104 Y114.964 E2.00919
G1 X48.104 Y115.498 E0.01675
G1 X92.835 Y160.229 E1.98550
G1 X92.301 Y160.229 E0.01675
G1 X48.104 Y116.032 E1.96180
G1 X48.104 Y116.566 E0.01675
G1 X91.767 Y160.229 E1.93811
G1 X91.233 Y160.229 E0.01675
G1 X48.104 Y117.100 E1.91441
G1 X48.104 Y117.633 E0.01675
G1 X90.700 Y160.229 E1.89072
G1 X90.166 Y160.229 E0.01675
G1 X48.104 Y118.167 E1.86702
G1 X48.104 Y118.701 E0.01675
G1 X89.632 Y160.229 E1.84333
G1 X89.098 Y160.229 E0.01675
G1 X48.104 Y119.235 E1.81963
G1 X48.104 Y119.769 E0.01675
G1 X88.564 Y160.229 E1.79594
G1 X88.030 Y160.229 E0.01675
G1 X48.104 Y120.303 E1.77224
G1 X48.104 Y120.836 E0.01675
G1 X87.497 Y160.229 E1.74855
G1 X86.963 Y160.229 E0.01675
G1 X48.104 Y121.370 E1.72485
G1 X48.104 Y121.904 E0.01675
G1 X86.429 Y160.229 E1.70116
G1 X85.895 Y160.229 E0.01675
G1 X48.104 Y122.438 E1.67746
G1 X48.104 Y122.972 E0.01675
G1 X85.361 Y160.229 E1.65377
G1 X84.828 Y160.229 E0.01675
G1 X48.104 Y123.506 E1.63007
G1 X48.104 Y124.039 E0.01675
G1 X84.294 Y160.229 E1.60638
G1 X83.760 Y160.229 E0.01675
G1 X48.104 Y124.573 E1.58268
G1 X48.104 Y125.107 E0.01675
G1 X83.226 Y160.229 E1.55899
G1 X82.692 Y160.229 E0.01675
G1 X48.104 Y125.641 E1.53529
M73 Q4 S255
M73 P4 R254
G1 X48.104 Y126.175 E0.01675
